src/standard/hardware/laptop-webinar.svg

<svg xmlns="http://www.w3.org/2000/svg" viewBox="0 0 36 36">
  <path d="M18 9.62a.62.62 0 1 0-.62-.62.61.61 0 0 0 .62.62Z"/>
  <path d="M6 24.62h24a.62.62 0 0 0 .62-.62V9a.62.62 0 0 0-.62-.62h-9a.62.62 0 1 0 0 1.24h8.38v13.76H6.62V9.62H15a.62.62 0 0 0 0-1.24H6a.62.62 0 0 0-.62.62v15a.62.62 0 0 0 .62.62Zm26 1.76H4a.62.62 0 1 0 0 1.24h28a.62.62 0 1 0 0-1.24Z"/>
  <path d="M24.67 13.38h-5.84a.62.62 0 0 0 0 1.24h5.84a.62.62 0 0 0 0-1.24Zm0 2.5h-5.84a.62.62 0 0 0 0 1.24h5.84a.62.62 0 0 0 0-1.24Zm0 2.5h-5.84a.62.62 0 0 0 0 1.24h5.84a.62.62 0 1 0 0-1.24Zm-13.43-4.72a.63.63 0 0 0-.94.54v4.6a.63.63 0 0 0 .94.54L15.31 17a.62.62 0 0 0 0-1.08Zm.31 4.07v-2.46l2.18 1.23Z"/>
</svg>

<svg id="f33d0ea3-3977-4353-b201-e236f7751459" data-name="Icon" xmlns="http://www.w3.org/2000/svg" viewBox="0 0 36 36">
  <path d="M18,9.62A.62.62,0,1,0,17.38,9,.61.61,0,0,0,18,9.62Z"/>
  <g>
    <path d="M6,24.62H30a.62.62,0,0,0,.62-.62V9A.62.62,0,0,0,30,8.38H21a.62.62,0,1,0,0,1.24h8.38V23.38H6.62V9.62H15a.62.62,0,0,0,0-1.24H6A.62.62,0,0,0,5.38,9V24A.62.62,0,0,0,6,24.62Z"/>
    <path d="M32,26.38H4a.62.62,0,1,0,0,1.24H32a.62.62,0,1,0,0-1.24Z"/>
    <path d="M24.67,13.38H18.83a.62.62,0,0,0,0,1.24h5.84a.62.62,0,0,0,0-1.24Z"/>
    <path d="M24.67,15.88H18.83a.62.62,0,0,0,0,1.24h5.84a.62.62,0,0,0,0-1.24Z"/>
    <path d="M24.67,18.38H18.83a.62.62,0,0,0,0,1.24h5.84a.62.62,0,1,0,0-1.24Z"/>
    <path d="M11.24,13.66a.63.63,0,0,0-.94.54v4.6a.63.63,0,0,0,.94.54L15.31,17a.62.62,0,0,0,0-1.08Zm.31,4.07V15.27l2.18,1.23Z"/>
  </g>
</svg>
